X:50
T: Pretty Brown Girl
T: Cail\'in Deas Donn (An)
S: B.Breathnach: "Ceol Rince na hEireann" II/14
Z: B.Black
L: 1/8
M: 6/8
R: jig
K: G
GB/c/d c2A|BGG dBG|GBd cAB|GBd gdB|
G2d cAA|BGG dBG|GBd cAF|1 AGF G3 :|2\
AGF G2||
d|geg fdf|ece dBG|geg fdf|ece def|
ggg a2a|bge dBG|BGd cAF|AGF G2 :|

